icon-themes/breeze_svg/cmd/lc_radiobutton.svg

<svg viewBox="0 0 24 24" xmlns="http://www.w3.org/2000/svg"><path d="m12 4c-4.418278 0-8 3.581722-8 8s3.581722 8 8 8 8-3.581722 8-8-3.581722-8-8-8zm0 1c3.865993 0 7 3.1340068 7 7 0 3.865993-3.134007 7-7 7-3.8659932 0-7-3.134007-7-7 0-3.8659932 3.1340068-7 7-7zm0 1a6 6 0 0 0 -6 6 6 6 0 0 0 6 6 6 6 0 0 0 6-6 6 6 0 0 0 -6-6z" fill="#4d4d4d"/></svg>

<svg xmlns="http://www.w3.org/2000/svg" viewBox="0 0 24 24">
 <path 
     style="fill:#4d4d4d" 
     d="M 12 4 C 7.581722 4 4 7.581722 4 12 C 4 16.418278 7.581722 20 12 20 C 16.418278 20 20 16.418278 20 12 C 20 7.581722 16.418278 4 12 4 z M 12 5 C 15.865993 5 19 8.1340068 19 12 C 19 15.865993 15.865993 19 12 19 C 8.1340068 19 5 15.865993 5 12 C 5 8.1340068 8.1340068 5 12 5 z M 12 6 A 6 6 0 0 0 6 12 A 6 6 0 0 0 12 18 A 6 6 0 0 0 18 12 A 6 6 0 0 0 12 6 z "
     />
 </svg>
